X:1
T:The Quarry Cross
L:1/4
M:2/2
I:linebreak $
K:D
V:1 treble nm="Voice" snm="Voice"
V:1
"Em" G E E E/D/ | B, E- E G/ | | D D E/ | F G A/B/B/A/ |$"Em" G E E E/D/ | B, E E3/2 F/ | G B A F | %8
 E2 E B/A/ ::$"Em" B e- e3/2 | e B B A | e e d | e2 e3/2 f/ |$ g e f g | e B B3/2 A/ | %15
 G E"Bm" E F | G A B B/A/ :| %17
